X: 172
T: Cut him down Susie, a Strathspey
B: John Pringle "Collection of Reels Strathspeys & Jigs", 1801 p.17#2
Z: 2011 John Chambers <jc:trillian.mit.edu>
R: strathspey
M: C
L: 1/8
K: D
V: 1
   B | A<FDF ~E>FGB | A<FDF A<d~d>B | A<FDF  E>FGB |   A<Fd>F Add :|
|: A | d>fe>g f>dcA | dfeg  f<a~a>f | g>ef>d e>dcA | {Bc}dBAF Add :|
V: 2 clef=bass middle=d
   z | d2d2 A2G2 | d2d2 d2d2 | d2d2 c2d2 | d2d2 d2d :|
|: z | d2c2 d2A2 | d2c2 d2d2 | G2d2 c2A2 | G2A2 d2d :|

%%sep 2 1 500

